static/img/sponsors/shipshape-logo.svg

<svg xmlns="http://www.w3.org/2000/svg" width="191" height="45" viewBox="0 0 191 45">
  <g fill="#00213B" fill-rule="evenodd" transform="translate(0 -1)">
    <path d="M59.87 28.27C59.87 32.87 55.59 34.71 51.31 34.74 47.9879079 34.7384454 44.8086642 33.3888005 42.5 31L44.85 28.66C46.449195 30.5981721 48.799148 31.7622355 51.31 31.86 54.07 31.86 56.31 30.86 56.31 28.53 56.31 26.47 54.12 25.61 50.38 24.03 47.3 22.73 43.62 21.18 43.62 17.15 43.62 13.98 46.62 10.68 51.62 10.68 54.8806066 10.6456452 57.9905067 12.0505883 60.12 14.52L57.77 16.77C56.1202112 14.8458845 53.7427089 13.697 51.21 13.6 49.05 13.6 47.21 14.8 47.21 16.83 47.21 19.69 50.51 20.73 52.98 21.71 56.26 23 59.87 24.66 59.87 28.27zM73.06 34.58L73.06 25.73C73.06 22.56 71.79 21.14 69.06 21.14 66.33 21.14 65.06 22.56 65.06 25.73L65.06 34.58 61.87 34.58 61.87 9.85 65.14 9.85 65.14 21C66.4526649 19.2919742 68.530344 18.350643 70.68 18.49 73.98 18.49 76.29 20.27 76.29 24.77L76.29 34.6 73.06 34.58z"/>
    <path fill-rule="nonzero" d="M80.32 14.7C79.5853159 14.7121788 78.9161728 14.2789919 78.6265423 13.6036969 78.3369118 12.928402 78.4842749 12.1450199 78.9994866 11.6211249 79.5146982 11.0972299 80.2955082 10.9367956 80.9755491 11.2151002 81.65559 11.4934047 82.0998991 12.155215 82.1 12.89 82.1108148 13.3680646 81.9277384 13.8301648 81.5924466 14.1711077 81.2571547 14.5120505 80.7981785 14.7028239 80.32 14.7zM78.7 34.58L78.7 18.63 82 18.63 82 34.63 78.7 34.58zM87.58 32.39L87.58 40.39 84.31 40.39 84.31 18.63 87.58 18.63 87.58 20.79C88.8502174 19.3135252 90.7023311 18.4660097 92.65 18.47 97.09 18.47 100.23 21.47 100.23 26.59 100.23 31.41 97.09 34.74 92.65 34.74 90.6989901 34.729802 88.8487278 33.8721854 87.58 32.39zM87.58 26.59C87.58 29.79 89.26 32.04 92.27 32.04 95.28 32.04 97 29.79 97 26.59 97 23.39 95.32 21.14 92.31 21.14 89.3 21.14 87.58 23.42 87.58 26.59z"/>
    <path d="M124.21 28.27C124.21 32.87 119.93 34.71 115.65 34.74 112.32467 34.7400061 109.141741 33.3903286 106.83 31L109.18 28.66C110.782298 30.5996953 113.135936 31.7637819 115.65 31.86 118.4 31.86 120.65 30.86 120.65 28.53 120.65 26.47 118.46 25.61 114.72 24.03 111.64 22.73 107.97 21.18 107.97 17.15 107.97 13.98 110.97 10.68 115.92 10.68 119.180607 10.6456452 122.290507 12.0505883 124.42 14.52L122.07 16.77C120.420211 14.8458845 118.042709 13.697 115.51 13.6 113.36 13.6 111.51 14.8 111.51 16.83 111.51 19.69 114.81 20.73 117.28 21.71 120.59 23 124.21 24.66 124.21 28.27zM137.39 34.58L137.39 25.73C137.39 22.56 136.13 21.14 133.39 21.14 130.65 21.14 129.39 22.56 129.39 25.73L129.39 34.58 126.2 34.58 126.2 9.85 129.47 9.85 129.47 21C130.778583 19.2903704 132.850833 18.3423067 135 18.47 138.29 18.47 140.61 20.25 140.61 24.75L140.61 34.58 137.39 34.58z"/>
    <path fill-rule="nonzero" d="M155.56 24.78L155.56 34.58 152.29 34.58 152.29 32.87C151.15 34.42 149.12 34.74 147.54 34.74 144.59 34.74 142.24 33.09 142.24 29.98 142.24 26.4 145.16 24.69 149.44 24.69L152.29 24.69C152.29 22.78 151.63 21.14 149.57 21.14 148.128688 21.1537504 146.750147 21.7317323 145.73 22.75L143.67 21.2C145.282097 19.5002657 147.507835 18.5170514 149.85 18.47 153.59 18.47 155.56 20.44 155.56 24.78zM152.29 27.6L149.88 27.6C146.62 27.6 145.51 28.36 145.51 29.82 145.51 31.28 146.84 32.07 148.3 32.07 151.37 32.07 152.3 30.77 152.3 29.07L152.29 27.6zM161 32.39L161 40.39 157.74 40.39 157.74 18.63 161 18.63 161 20.79C162.270217 19.3135252 164.122331 18.4660097 166.07 18.47 170.51 18.47 173.65 21.47 173.65 26.59 173.65 31.41 170.51 34.74 166.07 34.74 164.11899 34.729802 162.268728 33.8721854 161 32.39zM161 26.59C161 29.79 162.68 32.04 165.69 32.04 168.7 32.04 170.39 29.79 170.39 26.59 170.39 23.39 168.71 21.14 165.69 21.14 162.67 21.14 161 23.42 161 26.59zM177.84 27.92C177.84 30.49 180.16 32.07 182.5 32.07 184.257688 32.0504887 185.934977 31.3306222 187.16 30.07L189.1 31.87C187.408618 33.72105 185.007221 34.7616552 182.5 34.73 177.68 34.73 174.64 31.43 174.64 26.73 174.64 22.03 177.97 18.42 182.5 18.42 187.03 18.42 190.05 21.88 190.05 26.42L190.05 27.88 177.84 27.92zM182.5 21.14C180.106285 21.0424673 178.070618 22.8696892 177.91 25.26L186.78 25.26C186.816795 24.1281037 186.37206 23.0336587 185.556161 22.24826 184.740261 21.4628614 183.629674 21.0601275 182.5 21.14zM27.19 12.3C27.1900363 10.1564086 26.6206172 8.05128351 25.54 6.2 24.4746153 4.50809503 22.9237645 3.17680285 21.09 2.38 18.7163725 1.39259289 16.1596342.922153045 13.59 1 7.84 1 3.84 2.72 1.7 6.12-2.1 12.12 1.45 21.38 3.02 24.83 2.89044745 25.3700807 2.71652328 25.8985426 2.5 26.41 1.85988721 28.0505598 1.79990334 29.8606614 2.33 31.54 2.53537255 32.0709574 2.95728441 32.4892321 3.49 32.69 3.89059085 32.8351467 4.32940915 32.8351467 4.73 32.69 4.73 32.83 4.73 32.99 4.73 33.17 4.29493671 33.1262956 3.85860375 33.2398131 3.5 33.49 2.86241537 33.973231 2.39914784 34.6505843 2.18 35.42 1.93351312 36.1772937 1.85168637 36.9785139 1.94 37.77 2.05173522 38.9675826 2.77396396 40.022566 3.85 40.56 3.39804183 41.9438997 3.78789368 43.464322 4.85 44.46 6.05652198 45.7282067 7.93026303 46.1005526 9.53 45.39 11.0580922 44.6515722 12.2152588 43.3172145 12.73 41.7 13.14397 40.5932155 13.4096106 39.4365022 13.52 38.26 13.6407981 39.4345053 13.9165259 40.5878546 14.34 41.69 14.8793618 43.3099024 16.0569649 44.6392213 17.6 45.37 18.1585462 45.6128988 18.760925 45.7388198 19.37 45.74 20.5035018 45.7441852 21.5886565 45.2811859 22.37 44.46 23.4431149 43.4523456 23.8058968 41.8986927 23.29 40.52 24.3109459 39.96395 24.9891646 38.9372543 25.1 37.78 25.1898782 36.9878112 25.1045312 36.1855495 24.85 35.43 24.6308522 34.6605843 24.1675846 33.983231 23.53 33.5 23.1748529 33.250511 22.7418801 33.1369444 22.31 33.18 22.3017186 33.0201072 22.3017186 32.8598928 22.31 32.7 22.7071289 32.8452881 23.1428711 32.8452881 23.54 32.7 24.0765085 32.5016179 24.5023979 32.0830087 24.71 31.55 25.2312985 29.8687733 25.1678522 28.0605547 24.53 26.42 24.3232701 26.020173 24.1461288 25.6057291 24 25.18 25.0292816 22.9839442 25.8430932 20.6932153 26.43 18.34 26.9519472 16.3696443 27.2075544 14.33824 27.19 12.3zM22.19 25C22.3495278 25.7175897 22.5703378 26.4201669 22.85 27.1 23.46 28.49 23.26 30.93 22.85 31.1 22.44 31.27 22.48 28.87 21.44 27.1 21.3004537 26.8704554 21.1735967 26.6334331 21.06 26.39 21.3 27.84 21.47 29.93 20.73 31.13 19.86 32.63 21.46 37.47 21.93 37.53 22.59 37.63 21.93 34.53 22.5 34.9 23.34 35.48 24.02 38.45 22.19 39.1 20.52 39.69 17.4 34.9 18.34 31.1 18.84 29.57 17.96 26.36 17.69 25.1 18.153863 28.0499159 18.1369778 31.0554821 17.64 34 16.7 39.91 18.59 42 19.21 41.76 20.06 41.42 19.55 39.97 19.55 39.76 19.94 39.07 23.13 41.26 21.08 43.35 19.3 45.25 14.57 44.03 15.08 34.52 15.2541254 31.7937485 14.7092894 29.0695685 13.5 26.62 12.2143863 29.0451902 11.6324799 31.7815357 11.82 34.52 12.34 44.03 7.82 45.25 6.02 43.35 4 41.18 7 39 7.42 39.68 7.42 39.68 6.84 41.39 7.7 41.68 8.31 41.91 10.2 40.08 9.26 34.17 8.73052583 31.1530545 8.73052583 28.0669455 9.26 25.05 8.97 26.34 8 29.55 8.51 31.05 9.45 34.82 6.41 39.61 4.74 39.05 2.91 38.4 3.58 35.43 4.43 34.85 5 34.47 4.33 37.58 5 37.48 5.47 37.42 7.07 32.58 6.2 31.08 5.46 29.88 5.63 27.79 5.86 26.34 5.7501768 26.5834656 5.62664545 26.8205122 5.49 27.05 4.49 28.8 4.49 31.17 4.07 31.05 3.65 30.93 3.46 28.46 4.07 27.05 4.40376848 26.2544663 4.65508282 25.4268044 4.82 24.58 3.29 21.42-4.85 2.71 13.59 2.71 33 2.71 23 23.38 22.21 25L22.19 25zM5.37 21.13C5.37 20.1358875 6.17588745 19.33 7.17 19.33 8.16411255 19.33 8.97 20.1358875 8.97 21.13 8.97 22.1241125 8.16411255 22.93 7.17 22.93 6.17815987 22.9245352 5.37546481 22.1218401 5.37 21.13zM19.87 22.91C20.8627921 22.9044844 21.6636597 22.096171 21.6599877 21.1033704 21.6563157 20.1105697 20.8494909 19.3082025 19.8566852 19.3100308 18.8638794 19.3118592 18.0600153 20.1171926 18.06 21.11 18.0599926 21.5891274 18.251007 22.0484864 18.5907384 22.3863408 18.9304698 22.7241952 19.39088 22.9126618 19.87 22.91z"/>
  </g>
</svg>

<svg xmlns="http://www.w3.org/2000/svg" width="191" height="45">
  <g fill="#00213B" fill-rule="evenodd" transform="translate(0 -1)">
    <path d="M59.87 28.27c0 4.6-4.28 6.44-8.56 6.47-3.32 0-6.5-1.35-8.81-3.74l2.35-2.34a8.82 8.82 0 0 0 6.46 3.2c2.76 0 5-1 5-3.33 0-2.06-2.19-2.92-5.93-4.5-3.08-1.3-6.76-2.85-6.76-6.88 0-3.17 3-6.47 8-6.47a11.07 11.07 0 0 1 8.5 3.84l-2.35 2.25a9.1 9.1 0 0 0-6.56-3.17c-2.16 0-4 1.2-4 3.23 0 2.86 3.3 3.9 5.77 4.88 3.28 1.29 6.89 2.95 6.89 6.56zm13.19 6.31v-8.85c0-3.17-1.27-4.59-4-4.59s-4 1.42-4 4.59v8.85h-3.19V9.85h3.27V21a6.46 6.46 0 0 1 5.54-2.51c3.3 0 5.61 1.78 5.61 6.28v9.83l-3.23-.02z"/>
    <path fill-rule="nonzero" d="M80.32 14.7a1.81 1.81 0 1 1 1.78-1.81 1.77 1.77 0 0 1-1.78 1.81zM78.7 34.58V18.63H82v16l-3.3-.05zm8.88-2.19v8h-3.27V18.63h3.27v2.16a6.67 6.67 0 0 1 5.07-2.32c4.44 0 7.58 3 7.58 8.12 0 4.82-3.14 8.15-7.58 8.15a6.72 6.72 0 0 1-5.07-2.35zm0-5.8c0 3.2 1.68 5.45 4.69 5.45 3.01 0 4.73-2.25 4.73-5.45s-1.68-5.45-4.69-5.45c-3.01 0-4.73 2.28-4.73 5.45z"/>
    <path d="M124.21 28.27c0 4.6-4.28 6.44-8.56 6.47-3.33 0-6.5-1.35-8.82-3.74l2.35-2.34a8.83 8.83 0 0 0 6.47 3.2c2.75 0 5-1 5-3.33 0-2.06-2.19-2.92-5.93-4.5-3.08-1.3-6.75-2.85-6.75-6.88 0-3.17 3-6.47 7.95-6.47a11.07 11.07 0 0 1 8.5 3.84l-2.35 2.25a9.1 9.1 0 0 0-6.56-3.17c-2.15 0-4 1.2-4 3.23 0 2.86 3.3 3.9 5.77 4.88 3.31 1.29 6.93 2.95 6.93 6.56zm13.18 6.31v-8.85c0-3.17-1.26-4.59-4-4.59s-4 1.42-4 4.59v8.85h-3.19V9.85h3.27V21a6.48 6.48 0 0 1 5.53-2.53c3.29 0 5.61 1.78 5.61 6.28v9.83h-3.22z"/>
    <path fill-rule="nonzero" d="M155.56 24.78v9.8h-3.27v-1.71c-1.14 1.55-3.17 1.87-4.75 1.87-2.95 0-5.3-1.65-5.3-4.76 0-3.58 2.92-5.29 7.2-5.29h2.85c0-1.91-.66-3.55-2.72-3.55-1.44.01-2.82.6-3.84 1.61l-2.06-1.55a8.76 8.76 0 0 1 6.18-2.73c3.74 0 5.71 1.97 5.71 6.31zm-3.27 2.82h-2.41c-3.26 0-4.37.76-4.37 2.22 0 1.46 1.33 2.25 2.79 2.25 3.07 0 4-1.3 4-3l-.01-1.47zm8.71 4.79v8h-3.26V18.63H161v2.16a6.67 6.67 0 0 1 5.07-2.32c4.44 0 7.58 3 7.58 8.12 0 4.82-3.14 8.15-7.58 8.15a6.72 6.72 0 0 1-5.07-2.35zm0-5.8c0 3.2 1.68 5.45 4.69 5.45 3.01 0 4.7-2.25 4.7-5.45s-1.68-5.45-4.7-5.45c-3.02 0-4.69 2.28-4.69 5.45zm16.84 1.33c0 2.57 2.32 4.15 4.66 4.15a6.6 6.6 0 0 0 4.66-2l1.94 1.8a8.79 8.79 0 0 1-6.6 2.86c-4.82 0-7.86-3.3-7.86-8s3.33-8.31 7.86-8.31 7.55 3.46 7.55 8v1.46l-12.21.04zm4.66-6.78a4.42 4.42 0 0 0-4.59 4.12h8.87a4 4 0 0 0-4.28-4.12zM27.19 12.3c0-2.14-.57-4.25-1.65-6.1a9.94 9.94 0 0 0-4.45-3.82A18.1 18.1 0 0 0 13.59 1C7.84 1 3.84 2.72 1.7 6.12c-3.8 6-.25 15.26 1.32 18.71-.13.54-.3 1.07-.52 1.58a7.72 7.72 0 0 0-.17 5.13 2 2 0 0 0 1.16 1.15c.4.15.84.15 1.24 0v.48c-.44-.04-.87.07-1.23.32a3.69 3.69 0 0 0-1.32 1.93 5.59 5.59 0 0 0-.24 2.35c.11 1.2.83 2.25 1.91 2.79a3.75 3.75 0 0 0 1 3.9 4.14 4.14 0 0 0 4.68.93 6.18 6.18 0 0 0 3.2-3.69c.41-1.1.68-2.26.79-3.44.12 1.17.4 2.33.82 3.43a6.26 6.26 0 0 0 3.26 3.68c.56.24 1.16.37 1.77.37 1.13 0 2.22-.46 3-1.28 1.07-1 1.44-2.56.92-3.94a3.5 3.5 0 0 0 1.81-2.74c.09-.8 0-1.6-.25-2.35a3.69 3.69 0 0 0-1.32-1.93 1.81 1.81 0 0 0-1.22-.32v-.48c.4.15.83.15 1.23 0a2 2 0 0 0 1.17-1.15 7.79 7.79 0 0 0-.18-5.13c-.2-.4-.38-.81-.53-1.24a37.5 37.5 0 0 0 2.43-6.84c.52-1.97.78-4 .76-6.04zm-5 12.7c.16.72.38 1.42.66 2.1.61 1.39.41 3.83 0 4-.41.17-.37-2.23-1.41-4a7.35 7.35 0 0 1-.38-.71c.24 1.45.41 3.54-.33 4.74-.87 1.5.73 6.34 1.2 6.4.66.1 0-3 .57-2.63.84.58 1.52 3.55-.31 4.2-1.67.59-4.79-4.2-3.85-8 .5-1.53-.38-4.74-.65-6 .46 2.95.45 5.96-.05 8.9-.94 5.91.95 8 1.57 7.76.85-.34.34-1.79.34-2 .39-.69 3.58 1.5 1.53 3.59-1.78 1.9-6.51.68-6-8.83a15.6 15.6 0 0 0-1.58-7.9 14.72 14.72 0 0 0-1.68 7.9c.52 9.51-4 10.73-5.8 8.83C4 41.18 7 39 7.42 39.68c0 0-.58 1.71.28 2 .61.23 2.5-1.6 1.56-7.51-.53-3.02-.53-6.1 0-9.12-.29 1.29-1.26 4.5-.75 6 .94 3.77-2.1 8.56-3.77 8-1.83-.65-1.16-3.62-.31-4.2.57-.38-.1 2.73.57 2.63.47-.06 2.07-4.9 1.2-6.4-.74-1.2-.57-3.29-.34-4.74-.11.24-.23.48-.37.71-1 1.75-1 4.12-1.42 4-.42-.12-.61-2.59 0-4 .33-.8.59-1.62.75-2.47-1.53-3.16-9.67-21.87 8.77-21.87C33 2.71 23 23.38 22.21 25h-.02zM5.37 21.13a1.8 1.8 0 1 1 3.6 0 1.8 1.8 0 0 1-3.6 0zm14.5 1.78a1.8 1.8 0 1 0-.02-3.6 1.8 1.8 0 0 0 .02 3.6z"/>
  </g>
</svg>
